assets/sonr-icons/lock-open.svg

<svg xmlns="http://www.w3.org/2000/svg" width="24" height="24" fill="none" viewBox="0 0 24 24"><path fill="#000" d="M9.75898 8.99999H14.242C15.047 8.99999 15.711 8.99999 16.253 9.04399C16.815 9.08999 17.331 9.18899 17.817 9.43499C18.569 9.81799 19.181 10.43 19.565 11.183C19.812 11.668 19.911 12.185 19.957 12.747C20.001 13.289 20.001 13.952 20.001 14.758V16.241C20.001 17.046 20.001 17.71 19.957 18.252C19.911 18.814 19.812 19.33 19.565 19.816C19.182 20.568 18.57 21.18 17.817 21.564C17.332 21.811 16.815 21.91 16.253 21.955C15.711 21.999 15.048 21.999 14.242 21.999H9.75898C8.95398 21.999 8.28998 21.999 7.74798 21.955C7.18598 21.909 6.66898 21.81 6.18398 21.564C5.43098 21.181 4.81998 20.569 4.43598 19.816C4.18898 19.331 4.08998 18.814 4.04498 18.252C4.00098 17.711 4.00098 17.047 4.00098 16.241V14.758C4.00098 13.953 4.00098 13.289 4.04498 12.747C4.09098 12.185 4.18998 11.668 4.43598 11.182C4.81898 10.43 5.43098 9.81799 6.18398 9.43399C6.66898 9.18599 7.18598 9.08799 7.74798 9.04199C8.28898 8.99799 8.95298 8.99799 9.75898 8.99799H9.75998L9.75898 8.99999ZM7.91098 11.038C7.47198 11.074 7.24898 11.139 7.09198 11.219C6.71498 11.411 6.40898 11.717 6.21798 12.093C6.13798 12.25 6.07298 12.473 6.03698 12.912C5.99998 13.362 5.99898 13.945 5.99898 14.801V16.201C5.99898 17.058 5.99998 17.64 6.03698 18.09C6.07298 18.529 6.13798 18.752 6.21798 18.909C6.40998 19.286 6.71598 19.592 7.09198 19.783C7.24898 19.863 7.47198 19.928 7.91098 19.964C8.36098 20.001 8.94398 20.001 9.79998 20.001H14.2C15.056 20.001 15.639 20 16.089 19.964C16.528 19.928 16.751 19.863 16.908 19.783C17.285 19.591 17.591 19.285 17.782 18.909C17.862 18.752 17.927 18.529 17.963 18.09C18 17.64 18 17.057 18 16.201V14.801C18 13.945 17.999 13.362 17.963 12.912C17.927 12.473 17.862 12.25 17.782 12.093C17.59 11.716 17.284 11.41 16.908 11.219C16.751 11.14 16.528 11.074 16.089 11.038C15.639 11.001 15.056 11.001 14.2 11.001H9.79998C8.94398 11.001 8.36198 11.002 7.91098 11.038Z"/><path fill="#000" d="M11 16C11 15.448 11.448 15 12 15C12.552 15 13 15.448 13 16V17C13 17.552 12.552 18 12 18C11.448 18 11 17.552 11 17V16ZM18 2C20.209 2 22 3.791 22 6C22 6.552 21.552 7 21 7C20.448 7 20 6.552 20 6C20 4.895 19.105 4 18 4C16.895 4 16 4.895 16 6V11H14V6C14 3.791 15.792 2 18 2Z"/></svg>

<svg xmlns="http://www.w3.org/2000/svg" width="24" height="24" fill="none"><path fill="currentColor" d="M9.759 9h4.483c.805 0 1.469 0 2.011.044.562.046 1.078.145 1.564.391a4 4 0 0 1 1.748 1.748c.247.485.346 1.002.392 1.564.044.542.044 1.205.044 2.011v1.483c0 .805 0 1.469-.044 2.011-.046.562-.145 1.078-.392 1.564a4 4 0 0 1-1.748 1.748c-.485.247-1.002.346-1.564.391-.542.044-1.205.044-2.011.044H9.759c-.805 0-1.469 0-2.011-.044-.562-.046-1.079-.145-1.564-.391a4 4 0 0 1-1.748-1.748c-.247-.485-.346-1.002-.391-1.564-.044-.541-.044-1.205-.044-2.011v-1.483c0-.805 0-1.469.044-2.011.046-.562.145-1.079.391-1.565a4 4 0 0 1 1.748-1.748c.485-.248 1.002-.346 1.564-.392.541-.044 1.205-.044 2.011-.044h.001zm-1.848 2.038c-.439.036-.662.101-.819.181a2 2 0 0 0-.874.874c-.08.157-.145.38-.181.819-.037.45-.038 1.033-.038 1.889v1.4c0 .857.001 1.439.038 1.889.036.439.101.662.181.819.192.377.498.683.874.874.157.08.38.145.819.181.45.037 1.033.037 1.889.037h4.4c.856 0 1.439-.001 1.889-.037.439-.036.662-.101.819-.181.377-.192.683-.498.874-.874.08-.157.145-.38.181-.819.037-.45.037-1.033.037-1.889v-1.4c0-.856-.001-1.439-.037-1.889-.036-.439-.101-.662-.181-.819a2 2 0 0 0-.874-.874c-.157-.079-.38-.145-.819-.181-.45-.037-1.033-.037-1.889-.037H9.8c-.856 0-1.438.001-1.889.037"/><path fill="currentColor" d="M11 16a1 1 0 0 1 2 0v1a1 1 0 0 1-2 0zm7-14a4 4 0 0 1 4 4 1 1 0 0 1-2 0 2 2 0 1 0-4 0v5h-2V6a4 4 0 0 1 4-4"/></svg>
